Newaita-dark/apps/scalable/mplayer.svg

<?xml version="1.0" encoding="UTF-8"?>
<svg xmlns="http://www.w3.org/2000/svg" xmlns:xlink="http://www.w3.org/1999/xlink" width="512pt" height="512pt" viewBox="0 0 512 512" version="1.1">
<defs>
<linearGradient id="linear0" gradientUnits="userSpaceOnUse" x1="254" y1="233.5" x2="254" y2="254.666672" gradientTransform="matrix(1.000095,0,0,1.000095,-0.000061041,215.020562)">
<stop offset="0" style="stop-color:rgb(0%,0%,0%);stop-opacity:0.27451;"/>
<stop offset="1" style="stop-color:rgb(0%,0%,0%);stop-opacity:0;"/>
</linearGradient>
<radialGradient id="radial0" gradientUnits="userSpaceOnUse" cx="450.908936" cy="189.579361" fx="450.908936" fy="189.579361" r="21.166656" gradientTransform="matrix(0.00000278673,-1.250119,-2.250215,-0.00000162462,849.966879,1017.525321)">
<stop offset="0" style="stop-color:rgb(0%,0%,0%);stop-opacity:0.313725;"/>
<stop offset="0.222222" style="stop-color:rgb(0%,0%,0%);stop-opacity:0.27451;"/>
<stop offset="1" style="stop-color:rgb(0%,0%,0%);stop-opacity:0;"/>
</radialGradient>
<radialGradient id="radial1" gradientUnits="userSpaceOnUse" cx="450.908936" cy="189.579361" fx="450.908936" fy="189.579361" r="21.166656" gradientTransform="matrix(-0.00000278673,1.250119,2.250215,0.00000162462,-339.272325,-120.439662)">
<stop offset="0" style="stop-color:rgb(0%,0%,0%);stop-opacity:0.313725;"/>
<stop offset="0.222222" style="stop-color:rgb(0%,0%,0%);stop-opacity:0.27451;"/>
<stop offset="1" style="stop-color:rgb(0%,0%,0%);stop-opacity:0;"/>
</radialGradient>
<radialGradient id="radial2" gradientUnits="userSpaceOnUse" cx="450.908936" cy="189.579361" fx="450.908936" fy="189.579361" r="21.166656" gradientTransform="matrix(-0.00000278673,-1.250119,2.250215,-0.00000162462,-339.272325,1017.525321)">
<stop offset="0" style="stop-color:rgb(0%,0%,0%);stop-opacity:0.313725;"/>
<stop offset="0.222222" style="stop-color:rgb(0%,0%,0%);stop-opacity:0.27451;"/>
<stop offset="1" style="stop-color:rgb(0%,0%,0%);stop-opacity:0;"/>
</radialGradient>
<radialGradient id="radial3" gradientUnits="userSpaceOnUse" cx="450.908936" cy="189.579361" fx="450.908936" fy="189.579361" r="21.166656" gradientTransform="matrix(0.00000278673,1.250119,-2.250215,0.00000162462,849.966856,-120.43967)">
<stop offset="0" style="stop-color:rgb(0%,0%,0%);stop-opacity:0.313725;"/>
<stop offset="0.222222" style="stop-color:rgb(0%,0%,0%);stop-opacity:0.27451;"/>
<stop offset="1" style="stop-color:rgb(0%,0%,0%);stop-opacity:0;"/>
</radialGradient>
<linearGradient id="linear1" gradientUnits="userSpaceOnUse" x1="254" y1="233.5" x2="254" y2="-168.666656" gradientTransform="matrix(1.000095,0,0,1.000095,0,215.020531)">
<stop offset="0" style="stop-color:rgb(25.882353%,64.705882%,96.078431%);stop-opacity:1;"/>
<stop offset="1" style="stop-color:rgb(39.215686%,70.980392%,96.470588%);stop-opacity:1;"/>
</linearGradient>
<linearGradient id="linear2" gradientUnits="userSpaceOnUse" x1="370.416656" y1="159.416672" x2="370.416656" y2="180.583328" gradientTransform="matrix(1,0,0,1,0,10.583338)">
<stop offset="0" style="stop-color:rgb(87.843137%,87.843137%,87.843137%);stop-opacity:1;"/>
<stop offset="1" style="stop-color:rgb(98.039216%,98.039216%,98.039216%);stop-opacity:1;"/>
</linearGradient>
<linearGradient id="linear3" gradientUnits="userSpaceOnUse" x1="211.666672" y1="159.416672" x2="211.666672" y2="180.583328" gradientTransform="matrix(1,0,0,1,0,10.583338)">
<stop offset="0" style="stop-color:rgb(89.803922%,22.352941%,20.784314%);stop-opacity:1;"/>
<stop offset="1" style="stop-color:rgb(93.72549%,32.54902%,31.372549%);stop-opacity:1;"/>
</linearGradient>
<linearGradient id="linear4" gradientUnits="userSpaceOnUse" x1="285.75" y1="138.25" x2="285.75" y2="201.75" gradientTransform="matrix(1,0,0,1,26.458323,10.583338)">
<stop offset="0" style="stop-color:rgb(87.843137%,87.843137%,87.843137%);stop-opacity:1;"/>
<stop offset="1" style="stop-color:rgb(98.039216%,98.039216%,98.039216%);stop-opacity:1;"/>
</linearGradient>
<linearGradient id="linear5" gradientUnits="userSpaceOnUse" x1="254" y1="53.583332" x2="254" y2="-105.166656" gradientTransform="matrix(1.000095,0,0,1.000095,-5.343854,217.695806)">
<stop offset="0" style="stop-color:rgb(87.843137%,87.843137%,87.843137%);stop-opacity:1;"/>
<stop offset="1" style="stop-color:rgb(96.078431%,96.078431%,96.078431%);stop-opacity:1;"/>
</linearGradient>
</defs>
<g id="surface1">
<path style=" stroke:none;fill-rule:nonzero;fill:url(#linear0);" d="M 82.027344 448.542969 L 428.664062 448.542969 L 428.664062 469.710938 L 82.027344 469.710938 Z M 82.027344 448.542969 "/>
<path style=" stroke:none;fill-rule:nonzero;fill:url(#radial0);" d="M 428.664062 448.542969 L 471.003906 448.542969 L 471.003906 427.375 L 428.664062 427.375 Z M 428.664062 448.542969 "/>
<path style=" stroke:none;fill-rule:nonzero;fill:url(#radial1);" d="M 82.027344 448.542969 L 39.691406 448.542969 L 39.691406 469.710938 L 82.027344 469.710938 Z M 82.027344 448.542969 "/>
<path style=" stroke:none;fill-rule:nonzero;fill:url(#radial2);" d="M 82.027344 448.542969 L 39.691406 448.542969 L 39.691406 427.375 L 82.027344 427.375 Z M 82.027344 448.542969 "/>
<path style=" stroke:none;fill-rule:nonzero;fill:url(#radial3);" d="M 428.664062 448.542969 L 471.003906 448.542969 L 471.003906 469.710938 L 428.664062 469.710938 Z M 428.664062 448.542969 "/>
<path style=" stroke:none;fill-rule:nonzero;fill:url(#linear1);" d="M 52.921875 46.335938 L 455.125 46.335938 C 466.816406 46.335938 476.296875 55.816406 476.296875 67.507812 L 476.296875 427.375 C 476.296875 439.066406 466.816406 448.542969 455.125 448.542969 L 52.921875 448.542969 C 41.230469 448.542969 31.753906 439.066406 31.753906 427.375 L 31.753906 67.507812 C 31.753906 55.816406 41.230469 46.335938 52.921875 46.335938 Z M 52.921875 46.335938 "/>
<path style="fill-rule:nonzero;fill:url(#linear2);stroke-width:3;stroke-linecap:round;stroke-linejoin:miter;stroke:rgb(12.941177%,12.941177%,12.941177%);stroke-opacity:1;stroke-miterlimit:4;" d="M 74.082769 169.998391 L 433.915594 169.998391 C 439.762692 169.998391 444.500521 174.740125 444.500521 180.583317 C 444.500521 186.426509 439.762692 191.168244 433.915594 191.168244 L 74.082769 191.168244 C 68.239577 191.168244 63.501748 186.426509 63.501748 180.583317 C 63.501748 174.740125 68.239577 169.998391 74.082769 169.998391 Z M 74.082769 169.998391 " transform="matrix(1.000095,0,0,1.000095,0,215.020531)"/>
<path style="fill-rule:nonzero;fill:url(#linear3);stroke-width:3;stroke-linecap:round;stroke-linejoin:miter;stroke:rgb(12.941177%,12.941177%,12.941177%);stroke-opacity:1;stroke-miterlimit:4;" d="M 74.082769 169.998391 L 338.666878 169.998391 C 344.51007 169.998391 349.251804 174.298761 349.251804 179.599036 L 349.251804 181.567598 C 349.251804 186.867874 344.51007 191.168244 338.666878 191.168244 L 74.082769 191.168244 C 68.239577 191.168244 63.501748 186.867874 63.501748 181.567598 L 63.501748 179.599036 C 63.501748 174.298761 68.239577 169.998391 74.082769 169.998391 Z M 74.082769 169.998391 " transform="matrix(1.000095,0,0,1.000095,0,215.020531)"/>
<path style="fill-rule:nonzero;fill:url(#linear4);stroke-width:3;stroke-linecap:round;stroke-linejoin:miter;stroke:rgb(12.941177%,12.941177%,12.941177%);stroke-opacity:1;stroke-miterlimit:4;" d="M 322.793394 148.832443 C 340.326875 148.832443 354.540362 163.049836 354.540362 180.583317 C 354.540362 198.116799 340.326875 212.334192 322.793394 212.334192 C 305.256006 212.334192 291.042519 198.116799 291.042519 180.583317 C 291.042519 163.049836 305.256006 148.832443 322.793394 148.832443 Z M 322.793394 148.832443 " transform="matrix(1.000095,0,0,1.000095,0,215.020531)"/>
<path style=" stroke:none;fill-rule:nonzero;fill:rgb(100%,100%,100%);fill-opacity:0.392157;" d="M 52.921875 46.335938 C 41.195312 46.335938 31.753906 55.777344 31.753906 67.507812 L 31.753906 72.796875 C 31.753906 61.070312 41.195312 51.628906 52.921875 51.628906 L 455.125 51.628906 C 466.855469 51.628906 476.296875 61.070312 476.296875 72.796875 L 476.296875 67.507812 C 476.296875 55.777344 466.855469 46.335938 455.125 46.335938 Z M 52.921875 46.335938 "/>
<path style=" stroke:none;fill-rule:nonzero;fill:rgb(0%,0%,0%);fill-opacity:0.235294;" d="M 52.921875 448.542969 C 41.195312 448.542969 31.753906 439.101562 31.753906 427.375 L 31.753906 422.082031 C 31.753906 433.808594 41.195312 443.25 52.921875 443.25 L 455.125 443.25 C 466.855469 443.25 476.296875 433.808594 476.296875 422.082031 L 476.296875 427.375 C 476.296875 439.101562 466.855469 448.542969 455.125 448.542969 Z M 52.921875 448.542969 "/>
<path style=" stroke:none;fill-rule:nonzero;fill:url(#linear5);" d="M 206.699219 112.578125 C 200.746094 112.375 195.8125 117.148438 195.808594 123.101562 L 195.808594 260.699219 C 195.8125 268.855469 204.679688 273.917969 211.703125 269.769531 L 328.128906 200.96875 C 335.027344 196.890625 335.027344 186.910156 328.128906 182.832031 L 211.703125 114.035156 C 210.183594 113.136719 208.460938 112.636719 206.699219 112.578125 Z M 206.699219 112.578125 "/>
<path style=" stroke:none;fill-rule:nonzero;fill:rgb(100%,100%,100%);fill-opacity:0.588235;" d="M 206.144531 112.570312 C 200.441406 112.675781 195.8125 117.332031 195.808594 123.101562 L 195.808594 128.335938 C 195.8125 122.382812 200.746094 117.613281 206.699219 117.8125 C 208.460938 117.871094 210.183594 118.371094 211.703125 119.269531 L 328.128906 188.066406 C 330.714844 189.597656 332.332031 191.953125 332.976562 194.519531 C 334.058594 190.238281 332.441406 185.382812 328.128906 182.832031 L 211.703125 114.035156 C 210.183594 113.136719 208.460938 112.636719 206.699219 112.578125 C 206.511719 112.570312 206.328125 112.570312 206.144531 112.570312 Z M 206.144531 112.570312 "/>
<path style=" stroke:none;fill-rule:nonzero;fill:rgb(0%,0%,0%);fill-opacity:0.235294;" d="M 206.144531 271.285156 C 200.441406 271.179688 195.8125 266.523438 195.808594 260.753906 L 195.808594 255.519531 C 195.8125 261.472656 200.746094 266.246094 206.699219 266.046875 C 208.460938 265.984375 210.183594 265.484375 211.703125 264.585938 L 328.128906 195.789062 C 330.714844 194.261719 332.332031 191.902344 332.976562 189.335938 C 334.058594 193.617188 332.441406 198.472656 328.128906 201.023438 L 211.703125 269.820312 C 210.183594 270.71875 208.460938 271.21875 206.699219 271.28125 C 206.511719 271.285156 206.328125 271.289062 206.144531 271.285156 Z M 206.144531 271.285156 "/>
<path style=" stroke:none;fill-rule:nonzero;fill:rgb(12.941177%,12.941177%,12.941177%);fill-opacity:1;" d="M 206.75 111.078125 C 199.96875 110.847656 194.3125 116.320312 194.308594 123.101562 L 194.308594 260.699219 C 194.3125 269.941406 204.507812 275.761719 212.464844 271.058594 L 328.894531 202.261719 C 336.714844 197.636719 336.714844 186.164062 328.894531 181.542969 L 212.464844 112.746094 C 210.730469 111.71875 208.765625 111.144531 206.75 111.078125 Z M 206.648438 114.078125 C 208.160156 114.128906 209.636719 114.554688 210.9375 115.328125 L 327.367188 184.125 C 333.339844 187.65625 333.339844 196.144531 327.367188 199.679688 L 210.9375 268.476562 C 204.851562 272.074219 197.3125 267.769531 197.308594 260.699219 L 197.308594 123.101562 C 197.3125 117.976562 201.523438 113.90625 206.648438 114.078125 Z M 206.648438 114.078125 "/>
<path style=" stroke:none;fill-rule:nonzero;fill:rgb(0%,0%,0%);fill-opacity:0.470588;" d="M 31.753906 334.464844 L 476.296875 334.464844 L 476.296875 340.1875 L 31.753906 340.1875 Z M 31.753906 334.464844 "/>
<path style=" stroke:none;fill-rule:nonzero;fill:rgb(0%,0%,0%);fill-opacity:0.235294;" d="M 31.753906 329.46875 L 476.296875 329.46875 L 476.296875 334.894531 L 31.753906 334.894531 Z M 31.753906 329.46875 "/>
<path style=" stroke:none;fill-rule:nonzero;fill:rgb(97.254902%,97.254902%,97.254902%);fill-opacity:0.392157;" d="M 31.753906 340.054688 L 476.296875 340.054688 L 476.296875 345.476562 L 31.753906 345.476562 Z M 31.753906 340.054688 "/>
<path style=" stroke:none;fill-rule:nonzero;fill:rgb(12.941177%,12.941177%,12.941177%);fill-opacity:1;" d="M 52.921875 44.839844 C 40.386719 44.839844 30.253906 54.972656 30.253906 67.507812 L 30.253906 427.375 C 30.253906 439.90625 40.386719 450.042969 52.921875 450.042969 L 455.128906 450.042969 C 467.660156 450.042969 477.796875 439.90625 477.796875 427.375 L 477.796875 67.507812 C 477.796875 54.972656 467.660156 44.839844 455.128906 44.839844 Z M 52.921875 47.839844 L 455.128906 47.839844 C 466.050781 47.839844 474.796875 56.585938 474.796875 67.507812 L 474.796875 427.375 C 474.796875 438.296875 466.050781 447.042969 455.128906 447.042969 L 52.921875 447.042969 C 42 447.042969 33.253906 438.296875 33.253906 427.375 L 33.253906 67.507812 C 33.253906 56.585938 42 47.839844 52.921875 47.839844 Z M 52.921875 47.839844 "/>
</g>
</svg>

<svg xmlns="http://www.w3.org/2000/svg" width="512pt" height="512pt" viewBox="0 0 512 512"><defs><linearGradient id="a" gradientUnits="userSpaceOnUse" x1="254" y1="233.5" x2="254" y2="254.667" gradientTransform="matrix(1.0001 0 0 1.0001 0 215.02)"><stop offset="0" stop-opacity=".275"/><stop offset="1" stop-opacity="0"/></linearGradient><radialGradient id="b" gradientUnits="userSpaceOnUse" cx="450.909" cy="189.579" fx="450.909" fy="189.579" r="21.167" gradientTransform="matrix(0 -1.25012 -2.25021 0 849.967 1017.525)"><stop offset="0" stop-opacity=".314"/><stop offset=".222" stop-opacity=".275"/><stop offset="1" stop-opacity="0"/></radialGradient><radialGradient id="c" gradientUnits="userSpaceOnUse" cx="450.909" cy="189.579" fx="450.909" fy="189.579" r="21.167" gradientTransform="matrix(0 1.25012 2.25021 0 -339.272 -120.44)"><stop offset="0" stop-opacity=".314"/><stop offset=".222" stop-opacity=".275"/><stop offset="1" stop-opacity="0"/></radialGradient><radialGradient id="d" gradientUnits="userSpaceOnUse" cx="450.909" cy="189.579" fx="450.909" fy="189.579" r="21.167" gradientTransform="matrix(0 -1.25012 2.25021 0 -339.272 1017.525)"><stop offset="0" stop-opacity=".314"/><stop offset=".222" stop-opacity=".275"/><stop offset="1" stop-opacity="0"/></radialGradient><radialGradient id="e" gradientUnits="userSpaceOnUse" cx="450.909" cy="189.579" fx="450.909" fy="189.579" r="21.167" gradientTransform="matrix(0 1.25012 -2.25021 0 849.967 -120.44)"><stop offset="0" stop-opacity=".314"/><stop offset=".222" stop-opacity=".275"/><stop offset="1" stop-opacity="0"/></radialGradient><linearGradient id="f" gradientUnits="userSpaceOnUse" x1="254" y1="233.5" x2="254" y2="-168.667" gradientTransform="matrix(1.0001 0 0 1.0001 0 215.02)"><stop offset="0" stop-color="#42a5f5"/><stop offset="1" stop-color="#64b5f6"/></linearGradient><linearGradient id="g" gradientUnits="userSpaceOnUse" x1="370.417" y1="159.417" x2="370.417" y2="180.583" gradientTransform="translate(0 10.583)"><stop offset="0" stop-color="#e0e0e0"/><stop offset="1" stop-color="#fafafa"/></linearGradient><linearGradient id="h" gradientUnits="userSpaceOnUse" x1="211.667" y1="159.417" x2="211.667" y2="180.583" gradientTransform="translate(0 10.583)"><stop offset="0" stop-color="#e53935"/><stop offset="1" stop-color="#ef5350"/></linearGradient><linearGradient id="i" gradientUnits="userSpaceOnUse" x1="285.75" y1="138.25" x2="285.75" y2="201.75" gradientTransform="translate(26.458 10.583)"><stop offset="0" stop-color="#e0e0e0"/><stop offset="1" stop-color="#fafafa"/></linearGradient><linearGradient id="j" gradientUnits="userSpaceOnUse" x1="254" y1="53.583" x2="254" y2="-105.167" gradientTransform="matrix(1.0001 0 0 1.0001 -5.344 217.696)"><stop offset="0" stop-color="#e0e0e0"/><stop offset="1" stop-color="#f5f5f5"/></linearGradient></defs><path d="M82.027 448.543h346.637v21.168H82.027zm0 0" fill="url(#a)"/><path d="M428.664 448.543h42.34v-21.168h-42.34zm0 0" fill="url(#b)"/><path d="M82.027 448.543H39.691v21.168h42.336zm0 0" fill="url(#c)"/><path d="M82.027 448.543H39.691v-21.168h42.336zm0 0" fill="url(#d)"/><path d="M428.664 448.543h42.34v21.168h-42.34zm0 0" fill="url(#e)"/><path d="M52.922 46.336h402.203c11.691 0 21.172 9.48 21.172 21.172v359.867c0 11.691-9.48 21.168-21.172 21.168H52.922c-11.692 0-21.168-9.477-21.168-21.168V67.508c0-11.692 9.476-21.172 21.168-21.172zm0 0" fill="url(#f)"/><path d="M74.083 169.998h359.833c5.847 0 10.585 4.742 10.585 10.585 0 5.844-4.738 10.585-10.585 10.585H74.083c-5.843 0-10.581-4.741-10.581-10.585 0-5.843 4.738-10.585 10.58-10.585zm0 0" transform="matrix(1.0001 0 0 1.0001 0 215.02)" fill="url(#g)" stroke-width="3" stroke-linecap="round" stroke="#212121"/><path d="M74.083 169.998h264.584c5.843 0 10.585 4.3 10.585 9.601v1.969c0 5.3-4.742 9.6-10.585 9.6H74.083c-5.843 0-10.581-4.3-10.581-9.6v-1.969c0-5.3 4.738-9.6 10.58-9.6zm0 0" transform="matrix(1.0001 0 0 1.0001 0 215.02)" fill="url(#h)" stroke-width="3" stroke-linecap="round" stroke="#212121"/><path d="M322.793 148.832c17.534 0 31.747 14.218 31.747 31.751 0 17.534-14.213 31.751-31.747 31.751-17.537 0-31.75-14.217-31.75-31.75 0-17.534 14.213-31.752 31.75-31.752zm0 0" transform="matrix(1.0001 0 0 1.0001 0 215.02)" fill="url(#i)" stroke-width="3" stroke-linecap="round" stroke="#212121"/><path d="M52.922 46.336a21.123 21.123 0 0 0-21.168 21.172v5.289a21.122 21.122 0 0 1 21.168-21.168h402.203a21.123 21.123 0 0 1 21.172 21.168v-5.29a21.124 21.124 0 0 0-21.172-21.171zm0 0" fill="#fff" fill-opacity=".392"/><path d="M52.922 448.543a21.122 21.122 0 0 1-21.168-21.168v-5.293a21.122 21.122 0 0 0 21.168 21.168h402.203a21.123 21.123 0 0 0 21.172-21.168v5.293a21.123 21.123 0 0 1-21.172 21.168zm0 0" fill-opacity=".235"/><path d="M206.7 112.578c-5.954-.203-10.887 4.57-10.891 10.524v137.597c.004 8.156 8.87 13.219 15.894 9.07l116.426-68.8c6.898-4.078 6.898-14.059 0-18.137l-116.426-68.797a10.522 10.522 0 0 0-5.004-1.457zm0 0" fill="url(#j)"/><path d="M206.145 112.57c-5.704.106-10.333 4.762-10.336 10.532v5.234c.004-5.953 4.937-10.723 10.89-10.524 1.762.06 3.485.56 5.004 1.458l116.426 68.796c2.586 1.532 4.203 3.887 4.848 6.454 1.082-4.282-.536-9.137-4.848-11.688l-116.426-68.797a10.522 10.522 0 0 0-5.004-1.457c-.187-.008-.37-.008-.554-.008zm0 0" fill="#fff" fill-opacity=".588"/><path d="M206.145 271.285c-5.704-.105-10.333-4.762-10.336-10.531v-5.234c.004 5.953 4.937 10.726 10.89 10.527a10.57 10.57 0 0 0 5.004-1.461l116.426-68.797c2.586-1.527 4.203-3.887 4.848-6.453 1.082 4.281-.536 9.137-4.848 11.687L211.703 269.82a10.57 10.57 0 0 1-5.004 1.461c-.187.004-.37.008-.554.004zm0 0" fill-opacity=".235"/><path d="M206.75 111.078c-6.781-.23-12.438 5.242-12.441 12.024v137.597c.004 9.242 10.199 15.063 18.156 10.36l116.43-68.797c7.82-4.625 7.82-16.098 0-20.719l-116.43-68.797a11.987 11.987 0 0 0-5.715-1.668zm-.102 3a8.978 8.978 0 0 1 4.29 1.25l116.43 68.797c5.972 3.531 5.972 12.02 0 15.555l-116.43 68.797c-6.086 3.597-13.625-.707-13.63-7.778V123.102a9.012 9.012 0 0 1 9.34-9.024zm0 0" fill="#212121"/><path d="M31.754 334.465h444.543v5.723H31.754zm0 0" fill-opacity=".471"/><path d="M31.754 329.469h444.543v5.426H31.754zm0 0" fill-opacity=".235"/><path d="M31.754 340.055h444.543v5.422H31.754zm0 0" fill="#f8f8f8" fill-opacity=".392"/><path d="M52.922 44.84c-12.535 0-22.668 10.133-22.668 22.668v359.867c0 12.531 10.133 22.668 22.668 22.668h402.207c12.531 0 22.668-10.137 22.668-22.668V67.508c0-12.535-10.137-22.668-22.668-22.668zm0 3h402.207a19.592 19.592 0 0 1 19.668 19.668v359.867a19.592 19.592 0 0 1-19.668 19.668H52.922a19.592 19.592 0 0 1-19.668-19.668V67.508A19.592 19.592 0 0 1 52.922 47.84zm0 0" fill="#212121"/></svg>
